X: 1
T: Humours Of Tulla, The
M: 4/4
L: 1/8
R: reel
K: Dmaj
|: fe | d2Ad BdAB | d2fd edBA | d2Ad BdAd | bdef g2 :|
|: fg | afff dfff | afff g2fg | afff dfff | bdef g2 :|
